; generated by PrusaSlicer 2.3.3 on 2022-03-03 at 15:18:00 UTC

; 

; external perimeters extrusion width = 0.45mm
; perimeters extrusion width = 0.45mm
; infill extrusion width = 0.45mm
; solid infill extrusion width = 0.45mm
; top infill extrusion width = 0.40mm
; first layer extrusion width = 0.42mm

M73 P0 R139
M73 Q0 S141
M201 X1000 Y1000 Z200 E5000 ; sets maximum accelerations, mm/sec^2
M203 X200 Y200 Z12 E120 ; sets maximum feedrates, mm/sec
M204 P1250 R1250 T1250 ; sets acceleration (P, T) and retract acceleration (R), mm/sec^2
M205 X8.00 Y8.00 Z0.40 E4.50 ; sets the jerk limits, mm/sec
M205 S0 T0 ; sets the minimum extruding and travel feed rate, mm/sec
M107
;TYPE:Custom
M862.3 P "MK3S" ; printer model check
M862.1 P0.4 ; nozzle diameter check
M115 U3.10.0 ; tell printer latest fw version
G90 ; use absolute coordinates
M83 ; extruder relative mode
M104 S215 ; set extruder temp
M140 S60 ; set bed temp
M190 S60 ; wait for bed temp
M109 S215 ; wait for extruder temp
G28 W ; home all without mesh bed level
G80 ; mesh bed leveling
G1 Y-3.0 F1000.0 ; go outside print area
G92 E0.0
G1 X60.0 E9.0 F1000.0 ; intro line
G1 X100.0 E12.5 F1000.0 ; intro line
G92 E0.0
M221 S95

; Don't change E values below. Excessive value can damage the printer.

M907 E538 ; set extruder motor current
G21 ; set units to millimeters
G90 ; use absolute coordinates
M83 ; use relative distances for extrusion
M900 K0.05 ; Filament gcode LA 1.5
M900 K30 ; Filament gcode LA 1.0
;LAYER_CHANGE
;Z:0.2
;HEIGHT:0.2
;BEFORE_LAYER_CHANGE
G92 E0.0
;0.2


G1 E-0.80000 F2100.000
G1 Z0.400 F10800.000
;AFTER_LAYER_CHANGE
;0.2
G1 X62.187 Y59.359
G1 Z0.200
G1 E0.80000 F2100.000
M204 S1000
;TYPE:Skirt
;WIDTH:0.42
G1 F1200.000
G1 X63.087 Y59.001 E0.03036
G1 X107.030 Y51.475 E1.39789
M73 Q0 S140
G1 X182.590 Y51.470 E2.36913
G1 X183.489 Y51.648 E0.02872
G1 X184.254 Y52.152 E0.02872
G1 X184.771 Y52.909 E0.02872
G1 X184.963 Y53.804 E0.02872
G1 X185.274 Y102.043 E1.51253
G1 X185.274 Y136.074 E1.06700
G1 X185.197 Y136.650 E0.01823
G1 X184.985 Y137.187 E0.01811
G1 X184.646 Y137.660 E0.01823
G1 X184.207 Y138.034 E0.01811
G1 X183.585 Y138.326 E0.02154
G1 X182.909 Y138.428 E0.02142
G1 X107.348 Y138.423 E2.36916
G1 X64.801 Y131.420 E1.35199
G1 X63.920 Y131.066 E0.02978
G1 X63.246 Y130.392 E0.02989
G1 X62.972 Y129.828 E0.01965
G1 X62.855 Y129.209 E0.01977
G1 X61.120 Y90.179 E1.22494
G1 X61.121 Y61.262 E0.90667
G1 X61.208 Y60.703 E0.01775
G1 X61.424 Y60.179 E0.01775
G1 X61.758 Y59.722 E0.01775
G1 X62.141 Y59.398 E0.01575
; printing object top.stl id:3 copy 0
;WIPE_START
G1 F8640.000
G1 X63.087 Y59.001 E-0.23676
G1 X65.320 Y58.618 E-0.52324
;WIPE_END
G1 E-0.04000 F2100.000
G1 Z0.600 F10800.000
G1 X133.910 Y70.755
G1 Z0.200
G1 E0.80000 F2100.000
;TYPE:Perimeter
G1 F1200.000
G1 X134.145 Y70.034 E0.02379
G1 X134.504 Y69.366 E0.02379
G1 X134.978 Y68.772 E0.02379
G1 X135.549 Y68.273 E0.02379
G1 X136.200 Y67.884 E0.02379
G1 X136.911 Y67.617 E0.02379
G1 X137.657 Y67.482 E0.02379
G1 X138.416 Y67.482 E0.02379
G1 X139.163 Y67.617 E0.02379
G1 X139.873 Y67.884 E0.02379
G1 X140.524 Y68.273 E0.02379
G1 X141.096 Y68.772 E0.02379
G1 X141.569 Y69.366 E0.02379
G1 X141.928 Y70.034 E0.02379
G1 X142.163 Y70.755 E0.02379
G1 X142.265 Y71.507 E0.02379
G1 X142.231 Y72.265 E0.02379
G1 X142.062 Y73.005 E0.02379
G1 X141.763 Y73.703 E0.02379
G1 X141.345 Y74.336 E0.02379
G1 X140.821 Y74.884 E0.02379
G1 X140.207 Y75.330 E0.02379
G1 X139.524 Y75.660 E0.02379
G1 X138.792 Y75.861 E0.02379
G1 X138.037 Y75.929 E0.02379
G1 X137.281 Y75.861 E0.02379
G1 X136.549 Y75.660 E0.02379
G1 X135.866 Y75.330 E0.02379
G1 X135.252 Y74.884 E0.02379
G1 X134.728 Y74.336 E0.02379
G1 X134.310 Y73.703 E0.02379
G1 X134.011 Y73.005 E0.02379
G1 X133.843 Y72.265 E0.02379
G1 X133.809 Y71.507 E0.02379
G1 X133.902 Y70.815 E0.02191
G1 X134.276 Y70.865 F10800.000
;TYPE:External perimeter
G1 F1200.000
G1 X134.493 Y70.183 E0.02247
G1 X134.820 Y69.574 E0.02166
G1 X135.251 Y69.034 E0.02166
G1 X135.771 Y68.579 E0.02166
G1 X136.365 Y68.225 E0.02166
G1 X137.011 Y67.982 E0.02166
G1 X137.691 Y67.859 E0.02166
G1 X138.382 Y67.859 E0.02166
G1 X139.062 Y67.982 E0.02166
G1 X139.709 Y68.225 E0.02166
G1 X140.302 Y68.579 E0.02166
G1 X140.822 Y69.034 E0.02166
G1 X141.253 Y69.574 E0.02166
G1 X141.580 Y70.183 E0.02166
G1 X141.794 Y70.840 E0.02166
G1 X141.886 Y71.524 E0.02166
G1 X141.855 Y72.214 E0.02166
G1 X141.702 Y72.888 E0.02166
G1 X141.430 Y73.523 E0.02166
G1 X141.049 Y74.100 E0.02166
G1 X140.572 Y74.599 E0.02166
G1 X140.013 Y75.005 E0.02166
G1 X139.391 Y75.305 E0.02166
G1 X138.725 Y75.489 E0.02166
G1 X138.037 Y75.551 E0.02166
G1 X137.348 Y75.489 E0.02166
G1 X136.683 Y75.305 E0.02166
G1 X136.060 Y75.005 E0.02166
G1 X135.501 Y74.599 E0.02166
G1 X135.024 Y74.100 E0.02166
G1 X134.643 Y73.523 E0.02166
G1 X134.372 Y72.888 E0.02166
G1 X134.218 Y72.214 E0.02166
G1 X134.187 Y71.524 E0.02166
G1 X134.268 Y70.925 E0.01896
G1 X133.981 Y70.595 F10800.000
;WIPE_START
G1 F8640.000
G1 X134.493 Y70.183 E-0.17911
G1 X134.820 Y69.574 E-0.15953
G1 X135.251 Y69.034 E-0.15953
G1 X135.771 Y68.579 E-0.15953
G1 X136.152 Y68.352 E-0.10231
;WIPE_END
G1 E-0.04000 F2100.000
G1 Z0.600 F10800.000
G1 X127.765 Y71.507
G1 Z0.200
G1 E0.80000 F2100.000
;TYPE:Perimeter
G1 F1200.000
G1 X127.731 Y72.265 E0.02379
G1 X127.562 Y73.005 E0.02379
G1 X127.263 Y73.703 E0.02379
G1 X126.845 Y74.336 E0.02379
G1 X126.321 Y74.884 E0.02379
G1 X125.707 Y75.330 E0.02379
G1 X125.024 Y75.660 E0.02379
G1 X124.292 Y75.861 E0.02379
G1 X123.537 Y75.929 E0.02379
G1 X122.781 Y75.861 E0.02379
G1 X122.049 Y75.660 E0.02379
G1 X121.366 Y75.330 E0.02379
G1 X120.752 Y74.884 E0.02379
G1 X120.228 Y74.336 E0.02379
G1 X119.810 Y73.703 E0.02379
G1 X119.511 Y73.005 E0.02379
G1 X119.343 Y72.265 E0.02379
G1 X119.309 Y71.507 E0.02379
G1 X119.410 Y70.755 E0.02379
G1 X119.645 Y70.034 E0.02379
G1 X120.004 Y69.366 E0.02379
G1 X120.478 Y68.772 E0.02379
G1 X121.049 Y68.273 E0.02379
G1 X121.700 Y67.884 E0.02379
G1 X122.411 Y67.617 E0.02379
G1 X123.157 Y67.482 E0.02379
G1 X123.916 Y67.482 E0.02379
G1 X124.663 Y67.617 E0.02379
G1 X125.373 Y67.884 E0.02379
G1 X126.024 Y68.273 E0.02379
G1 X126.596 Y68.772 E0.02379
G1 X127.069 Y69.366 E0.02379
G1 X127.428 Y70.034 E0.02379
G1 X127.663 Y70.755 E0.02379
G1 X127.757 Y71.448 E0.02191
G1 X127.383 Y71.498 F10800.000
;TYPE:External perimeter
G1 F1200.000
G1 X127.355 Y72.214 E0.02247
G1 X127.202 Y72.888 E0.02166
G1 X126.930 Y73.523 E0.02166
G1 X126.549 Y74.100 E0.02166
G1 X126.072 Y74.599 E0.02166
G1 X125.513 Y75.005 E0.02166
G1 X124.891 Y75.305 E0.02166
G1 X124.225 Y75.489 E0.02166
G1 X123.537 Y75.551 E0.02166
G1 X122.848 Y75.489 E0.02166
G1 X122.183 Y75.305 E0.02166
G1 X121.560 Y75.005 E0.02166
G1 X121.001 Y74.599 E0.02166
G1 X120.524 Y74.100 E0.02166
G1 X120.143 Y73.523 E0.02166
G1 X119.872 Y72.888 E0.02166
G1 X119.718 Y72.214 E0.02166
G1 X119.687 Y71.524 E0.02166
G1 X119.780 Y70.840 E0.02166
G1 X119.993 Y70.183 E0.02166
G1 X120.320 Y69.574 E0.02166
G1 X120.751 Y69.034 E0.02166
G1 X121.271 Y68.579 E0.02166
G1 X121.865 Y68.225 E0.02166
G1 X122.511 Y67.982 E0.02166
G1 X123.191 Y67.859 E0.02166
G1 X123.882 Y67.859 E0.02166
G1 X124.562 Y67.982 E0.02166
G1 X125.209 Y68.225 E0.02166
G1 X125.802 Y68.579 E0.02166
G1 X126.322 Y69.034 E0.02166
G1 X126.753 Y69.574 E0.02166
G1 X127.080 Y70.183 E0.02166
G1 X127.294 Y70.840 E0.02166
G1 X127.375 Y71.439 E0.01896
G1 X127.739 Y71.681 F10800.000
;WIPE_START
G1 F8640.000
G1 X127.355 Y72.214 E-0.17911
G1 X127.202 Y72.888 E-0.15953
G1 X126.930 Y73.523 E-0.15952
G1 X126.549 Y74.100 E-0.15953
G1 X126.243 Y74.420 E-0.10231
;WIPE_END
G1 E-0.04000 F2100.000
G1 Z0.600 F10800.000
G1 X148.309 Y71.507
G1 Z0.200
G1 E0.80000 F2100.000
;TYPE:Perimeter
G1 F1200.000
G1 X148.410 Y70.755 E0.02379
G1 X148.645 Y70.034 E0.02379
G1 X149.004 Y69.366 E0.02379
G1 X149.478 Y68.772 E0.02379
G1 X150.049 Y68.273 E0.02379
G1 X150.700 Y67.884 E0.02379
G1 X151.411 Y67.617 E0.02379
G1 X152.157 Y67.482 E0.02379
G1 X152.916 Y67.482 E0.02379
G1 X153.663 Y67.617 E0.02379
G1 X154.373 Y67.884 E0.02379
G1 X155.024 Y68.273 E0.02379
G1 X155.596 Y68.772 E0.02379
G1 X156.069 Y69.366 E0.02379
G1 X156.428 Y70.034 E0.02379
G1 X156.663 Y70.755 E0.02379
G1 X156.765 Y71.507 E0.02379
G1 X156.731 Y72.265 E0.02379
G1 X156.562 Y73.005 E0.02379
G1 X156.263 Y73.703 E0.02379
G1 X155.845 Y74.336 E0.02379
G1 X155.321 Y74.884 E0.02379
G1 X154.707 Y75.330 E0.02379
G1 X154.024 Y75.660 E0.02379
G1 X153.292 Y75.861 E0.02379
G1 X152.537 Y75.929 E0.02379
G1 X151.781 Y75.861 E0.02379
G1 X151.049 Y75.660 E0.02379
G1 X150.366 Y75.330 E0.02379
G1 X149.752 Y74.884 E0.02379
G1 X149.228 Y74.336 E0.02379
G1 X148.810 Y73.703 E0.02379
G1 X148.511 Y73.005 E0.02379
G1 X148.343 Y72.265 E0.02379
G1 X148.311 Y71.567 E0.02191
G1 X148.688 Y71.550 F10800.000
;TYPE:External perimeter
G1 F1200.000
G1 X148.780 Y70.840 E0.02247
G1 X148.993 Y70.183 E0.02166
G1 X149.320 Y69.574 E0.02166
G1 X149.751 Y69.034 E0.02166
G1 X150.271 Y68.579 E0.02166
G1 X150.865 Y68.225 E0.02166
G1 X151.511 Y67.982 E0.02166
G1 X152.191 Y67.859 E0.02166
G1 X152.882 Y67.859 E0.02166
G1 X153.562 Y67.982 E0.02166
G1 X154.209 Y68.225 E0.02166
G1 X154.802 Y68.579 E0.02166
G1 X155.322 Y69.034 E0.02166
G1 X155.753 Y69.574 E0.02166
G1 X156.080 Y70.183 E0.02166
G1 X156.294 Y70.840 E0.02166
G1 X156.386 Y71.524 E0.02166
G1 X156.355 Y72.214 E0.02166
G1 X156.202 Y72.888 E0.02166
G1 X155.930 Y73.523 E0.02166
G1 X155.549 Y74.100 E0.02166
G1 X155.072 Y74.599 E0.02166
G1 X154.513 Y75.005 E0.02166
G1 X153.891 Y75.305 E0.02166
G1 X153.225 Y75.489 E0.02166
G1 X152.537 Y75.551 E0.02166
G1 X151.848 Y75.489 E0.02166
G1 X151.183 Y75.305 E0.02166
G1 X150.560 Y75.005 E0.02166
G1 X150.001 Y74.599 E0.02166
G1 X149.524 Y74.100 E0.02166
G1 X149.143 Y73.523 E0.02166
G1 X148.872 Y72.888 E0.02166
G1 X148.718 Y72.214 E0.02166
G1 X148.691 Y71.610 E0.01896
G1 X148.350 Y71.337 F10800.000
;WIPE_START
G1 F8640.000
G1 X148.780 Y70.840 E-0.17911
G1 X148.993 Y70.183 E-0.15952
G1 X149.320 Y69.574 E-0.15953
G1 X149.751 Y69.034 E-0.15953
G1 X150.085 Y68.742 E-0.10231
;WIPE_END
G1 E-0.04000 F2100.000
G1 Z0.600 F10800.000
G1 X162.809 Y71.507
G1 Z0.200
G1 E0.80000 F2100.000
;TYPE:Perimeter
G1 F1200.000
G1 X162.910 Y70.755 E0.02379
G1 X163.145 Y70.034 E0.02379
G1 X163.504 Y69.366 E0.02379
G1 X163.978 Y68.772 E0.02379
G1 X164.549 Y68.273 E0.02379
G1 X165.200 Y67.884 E0.02379
G1 X165.911 Y67.617 E0.02379
G1 X166.657 Y67.482 E0.02379
G1 X167.416 Y67.482 E0.02379
G1 X168.163 Y67.617 E0.02379
G1 X168.873 Y67.884 E0.02379
G1 X169.524 Y68.273 E0.02379
G1 X170.096 Y68.772 E0.02379
G1 X170.569 Y69.366 E0.02379
G1 X170.928 Y70.034 E0.02379
G1 X171.163 Y70.755 E0.02379
G1 X171.265 Y71.507 E0.02379
G1 X171.231 Y72.265 E0.02379
G1 X171.062 Y73.005 E0.02379
G1 X170.763 Y73.703 E0.02379
G1 X170.345 Y74.336 E0.02379
G1 X169.821 Y74.884 E0.02379
G1 X169.207 Y75.330 E0.02379
G1 X168.524 Y75.660 E0.02379
G1 X167.792 Y75.861 E0.02379
G1 X167.037 Y75.929 E0.02379
G1 X166.281 Y75.861 E0.02379
G1 X165.549 Y75.660 E0.02379
G1 X164.866 Y75.330 E0.02379
G1 X164.252 Y74.884 E0.02379
G1 X163.728 Y74.336 E0.02379
G1 X163.310 Y73.703 E0.02379
G1 X163.011 Y73.005 E0.02379
G1 X162.843 Y72.265 E0.02379
G1 X162.811 Y71.567 E0.02191
G1 X163.188 Y71.550 F10800.000
;TYPE:External perimeter
G1 F1200.000
G1 X163.280 Y70.840 E0.02247
G1 X163.493 Y70.183 E0.02166
G1 X163.820 Y69.574 E0.02166
G1 X164.251 Y69.034 E0.02166
G1 X164.771 Y68.579 E0.02166
G1 X165.365 Y68.225 E0.02166
G1 X166.011 Y67.982 E0.02166
G1 X166.691 Y67.859 E0.02166
G1 X167.382 Y67.859 E0.02166
G1 X168.062 Y67.982 E0.02166
G1 X168.709 Y68.225 E0.02166
G1 X169.302 Y68.579 E0.02166
G1 X169.822 Y69.034 E0.02166
G1 X170.253 Y69.574 E0.02166
G1 X170.580 Y70.183 E0.02166
G1 X170.794 Y70.840 E0.02166
G1 X170.886 Y71.524 E0.02166
G1 X170.855 Y72.214 E0.02166
G1 X170.702 Y72.888 E0.02166
G1 X170.430 Y73.523 E0.02166
G1 X170.049 Y74.100 E0.02166
G1 X169.572 Y74.599 E0.02166
G1 X169.013 Y75.005 E0.02166
G1 X168.391 Y75.305 E0.02166
G1 X167.725 Y75.489 E0.02166
G1 X167.037 Y75.551 E0.02166
G1 X166.348 Y75.489 E0.02166
G1 X165.683 Y75.305 E0.02166
G1 X165.060 Y75.005 E0.02166
G1 X164.501 Y74.599 E0.02166
G1 X164.024 Y74.100 E0.02166
G1 X163.643 Y73.523 E0.02166
G1 X163.372 Y72.888 E0.02166
G1 X163.218 Y72.214 E0.02166
G1 X163.191 Y71.610 E0.01896
G1 X162.850 Y71.337 F10800.000
;WIPE_START
G1 F8640.000
G1 X163.280 Y70.840 E-0.17911
G1 X163.493 Y70.183 E-0.15952
G1 X163.820 Y69.574 E-0.15953
G1 X164.251 Y69.034 E-0.15953
G1 X164.585 Y68.742 E-0.10231
;WIPE_END
G1 E-0.04000 F2100.000
G1 Z0.600 F10800.000
G1 X181.799 Y87.060
G1 Z0.200
G1 E0.80000 F2100.000
;TYPE:Perimeter
G1 F1200.000
G1 X107.974 Y87.060 E2.31476
G1 X107.974 Y54.634 E1.01669
G1 X181.799 Y54.634 E2.31476
G1 X181.799 Y87.000 E1.01481
G1 X182.177 Y87.437 F10800.000
;TYPE:External perimeter
G1 F1200.000
G1 X107.597 Y87.437 E2.33840
M73 P0 R138
G1 X107.597 Y54.257 E1.04034
G1 X182.177 Y54.257 E2.33840
G1 X182.177 Y87.377 E1.03845
G1 X181.780 Y87.381 F10800.000
;WIPE_START
G1 F8640.000
G1 X178.885 Y87.380 E-0.76000
;WIPE_END
G1 E-0.04000 F2100.000
G1 Z0.600 F10800.000
G1 X180.922 Y54.747
G1 Z0.200
G1 E0.80000 F2100.000
;TYPE:Solid infill
;WIDTH:0.421024
G1 F1200.000
G1 X181.517 Y55.342 E0.02644
G1 X181.517 Y55.877 E0.01681
G1 X180.557 Y54.917 E0.04267
G1 X180.022 Y54.917 E0.01681
G1 X181.517 Y56.412 E0.06645
G1 X181.517 Y56.946 E0.01681
G1 X179.487 Y54.917 E0.09022
G1 X178.953 Y54.917 E0.01681
G1 X181.517 Y57.481 E0.11400
G1 X181.517 Y58.016 E0.01681
G1 X178.418 Y54.917 E0.13777
G1 X177.883 Y54.917 E0.01681
G1 X181.517 Y58.550 E0.16155
G1 X181.517 Y59.085 E0.01681
G1 X177.349 Y54.917 E0.18532
G1 X176.814 Y54.917 E0.01681
G1 X181.517 Y59.620 E0.20910
G1 X181.517 Y60.155 E0.01681
G1 X176.279 Y54.917 E0.23287
G1 X175.744 Y54.917 E0.01681
G1 X181.517 Y60.689 E0.25665
G1 X181.517 Y61.224 E0.01681
G1 X175.210 Y54.917 E0.28042
G1 X174.675 Y54.917 E0.01681
G1 X181.517 Y61.759 E0.30420
G1 X181.517 Y62.293 E0.01681
G1 X174.140 Y54.917 E0.32797
G1 X173.606 Y54.917 E0.01681
G1 X181.517 Y62.828 E0.35175
G1 X181.517 Y63.363 E0.01681
G1 X173.071 Y54.917 E0.37552
M73 Q0 S139
G1 X172.536 Y54.917 E0.01681
G1 X181.517 Y63.898 E0.39930
G1 X181.517 Y64.432 E0.01681
G1 X172.001 Y54.917 E0.42307
G1 X171.467 Y54.917 E0.01681
G1 X181.517 Y64.967 E0.44685
G1 X181.517 Y65.502 E0.01681
G1 X170.932 Y54.917 E0.47062
G1 X170.397 Y54.917 E0.01681
G1 X181.517 Y66.036 E0.49440
G1 X181.517 Y66.571 E0.01681
G1 X169.863 Y54.917 E0.51817
G1 X169.328 Y54.917 E0.01681
G1 X181.517 Y67.106 E0.54194
G1 X181.517 Y67.641 E0.01681
G1 X168.793 Y54.917 E0.56572
G1 X168.258 Y54.917 E0.01681
G1 X181.517 Y68.175 E0.58949
G1 X181.517 Y68.710 E0.01681
G1 X167.724 Y54.917 E0.61327
G1 X167.189 Y54.917 E0.01681
G1 X181.517 Y69.245 E0.63704
G1 X181.517 Y69.779 E0.01681
G1 X166.654 Y54.917 E0.66082
G1 X166.119 Y54.917 E0.01681
G1 X181.517 Y70.314 E0.68459
G1 X181.517 Y70.849 E0.01681
G1 X165.585 Y54.917 E0.70837
G1 X165.050 Y54.917 E0.01681
G1 X181.517 Y71.384 E0.73214
G1 X181.517 Y71.918 E0.01681
G1 X164.515 Y54.917 E0.75592
G1 X163.981 Y54.917 E0.01681
M73 P1 R138
G1 X181.517 Y72.453 E0.77969
M73 Q1 S139
G1 X181.517 Y72.988 E0.01681
G1 X163.446 Y54.917 E0.80347
G1 X162.911 Y54.917 E0.01681
G1 X181.517 Y73.523 E0.82724
G1 X181.517 Y74.057 E0.01681
G1 X162.376 Y54.917 E0.85102
G1 X161.842 Y54.917 E0.01681
G1 X181.517 Y74.592 E0.87479
G1 X181.517 Y75.127 E0.01681
G1 X161.307 Y54.917 E0.89857
G1 X160.772 Y54.917 E0.01681
G1 X181.517 Y75.661 E0.92234
G1 X181.517 Y76.196 E0.01681
G1 X160.238 Y54.917 E0.94612
G1 X159.703 Y54.917 E0.01681
G1 X181.517 Y76.731 E0.96989
G1 X181.517 Y77.266 E0.01681
G1 X159.168 Y54.917 E0.99367
G1 X158.633 Y54.917 E0.01681
G1 X181.517 Y77.800 E1.01744
G1 X181.517 Y78.335 E0.01681
G1 X158.099 Y54.917 E1.04122
G1 X157.564 Y54.917 E0.01681
G1 X181.517 Y78.870 E1.06499
G1 X181.517 Y79.404 E0.01681
G1 X157.029 Y54.917 E1.08876
G1 X156.495 Y54.917 E0.01681
G1 X181.517 Y79.939 E1.11254
G1 X181.517 Y80.474 E0.01681
G1 X171.297 Y70.255 E0.45437
G1 X171.440 Y70.692 E0.01447
G1 X171.477 Y70.969 E0.00878
G1 X181.517 Y81.009 E0.44638
G1 X181.517 Y81.543 E0.01681
